X:1
T: Lord Balantyne
C:Niel Gow
R:Strathspey
Q: 128
K:A
M:4/4
L:1/16
|:e2|cde2 A3e ce3 a4|fd3 =g4 B=G3 G3B|cde2 A3e ce3 a3e|=g3d Be3 cA3 A2e2|
cde2 A3e ce3 a4|fd3 =g4 B=G3 G3B|cde2 A3e ce3 a3e|=g3d Be3 cA3 A2e2|
cde2 a4 agfe a4|Bd3 =g4 B=G3 G3B|cde2 a4 gb3 a4|e3a ga3 aA3 A3e|
cde2 a4 agfe a4|Bd3 =g4 B=G3 G3B|c3e d3f e3=g f3a|^g3e a3e cA3 A2:|
